dist/svgs/folder-full.svg

<!-- Generated by IcoMoon.io -->
<svg version="1.1" xmlns="http://www.w3.org/2000/svg" width="24" height="24" viewBox="0 0 24 24">
<title>folder-full</title>
<path d="M23.805 8.406c-0.189-0.256-0.488-0.406-0.805-0.406h-2v-3c0-0.552-0.447-1-1-1h-9.465l-1.703-2.555c-0.186-0.278-0.498-0.445-0.832-0.445h-7c-0.553 0-1 0.448-1 1v19.978c-0.002 0.074 0.005 0.148 0.020 0.22 0.029 0.145 0.090 0.279 0.174 0.395 0.087 0.118 0.199 0.217 0.333 0.289 0.099 0.053 0.208 0.091 0.323 0.108 0.050 0.007 0.1 0.010 0.15 0.010 0.008 0 0.016 0 0.023 0h17.977c0.439 0 0.827-0.286 0.956-0.706l4-13c0.093-0.303 0.037-0.633-0.151-0.888zM2 3h5.465l1.703 2.555c0.186 0.278 0.498 0.445 0.832 0.445h9v2h-14c-0.439 0-0.827 0.286-0.956 0.706l-2.044 6.644v-12.35z"></path>
</svg>

<svg xmlns="http://www.w3.org/2000/svg" width="24" height="24"><path d="M23.805 8.406A1 1 0 0 0 23 8h-2V5a1 1 0 0 0-1-1h-9.465L8.832 1.445A1.001 1.001 0 0 0 8 1H1a1 1 0 0 0-1 1v19.978a1.013 1.013 0 0 0 .194.615A1 1 0 0 0 1 23h18a1 1 0 0 0 .956-.706l4-13a1.002 1.002 0 0 0-.151-.888zM2 3h5.465l1.703 2.555c.186.278.498.445.832.445h9v2H5a1 1 0 0 0-.956.706L2 15.35V3z"/></svg>
